icons/premiererush-filled.svg

<svg width="256" height="256" viewBox="0 0 256 256" fill="none" xmlns="http://www.w3.org/2000/svg">
<path d="M196 0H60C26.8629 0 0 26.8629 0 60V196C0 229.137 26.8629 256 60 256H196C229.137 256 256 229.137 256 196V60C256 26.8629 229.137 0 196 0Z" fill="#00005B"/>
<path d="M67.5 179.8H48.3C47.4 179.8 47 179.3 47 178.4V75.9C47 74.9 47.3 74.5 48 74.5C51.8 74.4 55 74.3 57.7 74.3L65.4 74.1C67.9 74 70.4 74 73.1 74H81.8C90.8 74 98.4 75.3 104.5 77.8C110.19 79.9814 115.1 83.8115 118.6 88.8C121.9 93.5 123.5 99.4 123.5 106.4C123.535 110.543 122.647 114.643 120.9 118.4C119.192 122.038 116.779 125.301 113.8 128C110.732 130.797 107.172 133.001 103.3 134.5C104.4 135.9 105.9 138 107.8 140.9C109.7 143.8 111.9 146.9 114.2 150.4C116.5 153.9 118.8 157.4 121.1 161C123.4 164.6 125.5 167.8 127.4 170.8C129.3 173.8 130.7 176.2 131.7 177.9C131.86 178.073 131.979 178.279 132.048 178.504C132.117 178.729 132.135 178.967 132.1 179.2C132.109 179.29 132.097 179.381 132.063 179.466C132.03 179.55 131.976 179.625 131.908 179.684C131.839 179.743 131.756 179.784 131.668 179.804C131.58 179.825 131.488 179.823 131.4 179.8H108C107.527 179.79 107.057 179.723 106.6 179.6C106.29 179.422 106.018 179.184 105.8 178.9C104.6 177.2 103.1 174.9 101.4 172.1C99.7 169.3 97.8 166.2 95.8 162.8C93.8 159.4 91.8 156 89.8 152.7C87.8 149.4 86.1 146.4 84.6 143.7C84.1106 142.912 83.5036 142.204 82.8 141.6C82.207 141.207 81.5112 140.999 80.8 141H68.8V178.5C68.8135 178.674 68.7892 178.849 68.7286 179.013C68.6681 179.177 68.5727 179.326 68.4492 179.449C68.3257 179.573 68.1769 179.668 68.013 179.729C67.8492 179.789 67.6742 179.814 67.5 179.8ZM68.8 121.8H81.4C84.9925 121.899 88.576 121.392 92 120.3C94.7266 119.478 97.1129 117.794 98.8 115.5C100.485 113.183 101.331 110.362 101.2 107.5C101.2 102.6 99.4 99 95.7 96.8C92 94.6 87.2 93.5 81.2 93.5C78.6 93.5 76.2 93.5 74 93.6C71.8 93.7 70 93.7 68.8 93.8V121.8Z" fill="#9999FF"/>
<path d="M208.4 100.9V161.9C208.4 164.6 208.4 167 208.5 169.1C208.6 171.2 208.7 173 208.8 174.6C208.9 176.2 209.1 177.5 209.2 178.5C209.3 179.5 208.9 179.8 208.1 179.8H190.8C190.408 179.839 190.014 179.754 189.673 179.556C189.332 179.359 189.062 179.059 188.9 178.7C188.7 177.9 188.5 177.1 188.3 176.2C188.134 175.378 188.067 174.538 188.1 173.7C184.857 176.604 180.991 178.725 176.8 179.9C173.184 180.895 169.451 181.4 165.7 181.4C161.998 181.438 158.315 180.864 154.8 179.7C151.558 178.593 148.638 176.704 146.3 174.2C143.722 171.433 141.807 168.116 140.7 164.5C139.288 159.902 138.613 155.109 138.7 150.3V101.1C138.676 100.949 138.683 100.794 138.721 100.645C138.759 100.496 138.827 100.357 138.921 100.235C139.014 100.113 139.132 100.012 139.266 99.9374C139.4 99.8626 139.547 99.8159 139.7 99.8001H159.8C159.952 99.7762 160.107 99.7834 160.255 99.8213C160.404 99.8593 160.543 99.9271 160.665 100.021C160.787 100.114 160.888 100.232 160.963 100.366C161.038 100.5 161.084 100.647 161.1 100.8V147.8C161.1 152.2 162.1 155.7 164 158.2C165.9 160.7 169.2 162 173.7 162C176.019 162 178.321 161.593 180.5 160.8C182.525 159.995 184.414 158.882 186.1 157.5V100.9C186.1 100.1 186.6 99.8001 187.5 99.8001H207.3C207.425 99.7773 207.554 99.7802 207.678 99.8085C207.802 99.8368 207.918 99.8899 208.021 99.9647C208.124 100.039 208.211 100.134 208.276 100.244C208.341 100.353 208.383 100.474 208.4 100.6V100.9Z" fill="#9999FF"/>
</svg>

<svg xmlns="http://www.w3.org/2000/svg" width="256" height="256" fill="none"><path fill="#00005B" d="M196 0H60C26.863 0 0 26.863 0 60v136c0 33.137 26.863 60 60 60h136c33.137 0 60-26.863 60-60V60c0-33.137-26.863-60-60-60"/><path fill="#99F" d="M67.5 179.8H48.3c-.9 0-1.3-.5-1.3-1.4V75.9c0-1 .3-1.4 1-1.4 3.8-.1 7-.2 9.7-.2l7.7-.2c2.5-.1 5-.1 7.7-.1h8.7c9 0 16.6 1.3 22.7 3.8a30.6 30.6 0 0 1 14.1 11c3.3 4.7 4.9 10.6 4.9 17.6a27.9 27.9 0 0 1-2.6 12 30.4 30.4 0 0 1-7.1 9.6 33.6 33.6 0 0 1-10.5 6.5c1.1 1.4 2.6 3.5 4.5 6.4s4.1 6 6.4 9.5 4.6 7 6.9 10.6 4.4 6.8 6.3 9.8 3.3 5.4 4.3 7.1a1.57 1.57 0 0 1 .4 1.3.564.564 0 0 1-.432.604.55.55 0 0 1-.268-.004H108a6 6 0 0 1-1.4-.2 2.7 2.7 0 0 1-.8-.7c-1.2-1.7-2.7-4-4.4-6.8s-3.6-5.9-5.6-9.3-4-6.8-6-10.1-3.7-6.3-5.2-9a9 9 0 0 0-1.8-2.1 3.6 3.6 0 0 0-2-.6h-12v37.5a1.21 1.21 0 0 1-1.3 1.3m1.3-58h12.6a32 32 0 0 0 10.6-1.5 13.15 13.15 0 0 0 6.8-4.8 12.62 12.62 0 0 0 2.4-8c0-4.9-1.8-8.5-5.5-10.7s-8.5-3.3-14.5-3.3c-2.6 0-5 0-7.2.1s-4 .1-5.2.2zm139.6-20.9v61c0 2.7 0 5.1.1 7.2s.2 3.9.3 5.5.3 2.9.4 3.9-.3 1.3-1.1 1.3h-17.3a1.88 1.88 0 0 1-1.9-1.1c-.2-.8-.4-1.6-.6-2.5a10.5 10.5 0 0 1-.2-2.5 28.45 28.45 0 0 1-11.3 6.2 41.8 41.8 0 0 1-11.1 1.5 33.6 33.6 0 0 1-10.9-1.7 20.85 20.85 0 0 1-8.5-5.5 24.94 24.94 0 0 1-5.6-9.7 45.6 45.6 0 0 1-2-14.2v-49.2a1.127 1.127 0 0 1 1-1.3h20.1a1.13 1.13 0 0 1 1.3 1v47c0 4.4 1 7.9 2.9 10.4s5.2 3.8 9.7 3.8c2.319 0 4.621-.407 6.8-1.2a21.2 21.2 0 0 0 5.6-3.3v-56.6c0-.8.5-1.1 1.4-1.1h19.8a.94.94 0 0 1 1.1.8z"/></svg>
